X:1
T:122 - Motivos de Louvor
T:Letra: Henry Maxwell Wright (1849-1931)
T:Música: Kate M. Preston
M:6/8
L:1/8
Q:1/4=120
K:Bb
V:1
"Bb"F=EF G2E | F3 d2z | "F7"dcG A2c | "Bb"B3- B2z | F=EF G2E | F3 d2z | "C7"cdc G2c | "F"c3- "F7"c2z | c=Bc d2c | "Bb"B3 F2z | "Gm"GAB "D7"d2c | "Gm"B3- B2z | "Edim"BAB (BA)B | "Bb/F"d3 B2z | "Gm"FGB "Bb/F"d2"F7"c | "Bb"B3- B2z |]
w: 1.~Oh, vin-deou-vir, en-quan-to De Cris-toeu vou can-tar,_ Meu Sal-va-dor ben-di-to,  Pois vei-o-me sal-var!_ Cor-dei-roi-ma-cu-la-do, Mi-nhaal-ma res-ga-tou,_ E com seu pró_prio san-gue Meu co-ra-ção la-vou._
w: 2.~Quan-doa seus pés sen-ta-do, Eu, gra-to, can-ta-rei_ Os tão glo-rio-sos fei-tos Do meu Se-nhor e Rei._ Sim, mes-mo quan-doos ma-les Me quei-ram sub-mer-gir,_ Eu can-ta-rei_ de Cris-to, Queos po-de des-tru-ir._
w: 3.~Se-guin-do na ve-re-da Que pa-rao céu con-duz,_ Eu can-ta-rei de Cris-to, A mi-nha vi-dae luz!_ Quan-doeu mea-char sem ma-les Na-que-le san-to lar,_ E-ter-na-men_tea Cris-to Lou-vor hei de can-tar._
W: 
W:
W: 1. Oh, vinde ouvir, enquanto
W: De Cristo eu vou cantar,
W: Meu Salvador bendito, 
W: Pois veio-me salvar!
W: Cordeiro imaculado,
W: Minha alma resgatou,
W: E com seu próprio sangue
W: Meu coração lavou.
W: 
W: 2. Quando a seus pés sentado,
W: Eu, grato, cantarei
W: Os tão gloriosos feitos
W: Do meu Senhor e Rei.
W: Sim, mesmo quando os males
W: Me queiram submergir,
W: Eu cantarei de Cristo,
W: Que os pode destruir.
W: 
W:
W:
W: 3. Seguindo na vereda
W: Que para o céu conduz,
W: Eu cantarei de Cristo,
W: A minha vida e luz!
W: Quando eu me achar sem males
W: Naquele santo lar,
W: Eternamente a Cristo
W: Louvor hei de cantar.
W:         
W:           





